images/LOGOS_CLIENTES/PROSEGUR.svg

<svg width="125" height="32" viewBox="0 0 125 32" fill="none" xmlns="http://www.w3.org/2000/svg">
<path d="M-0.00195312 32H124.442V0H-0.00195312V32Z" fill="black"/>
<path fill-rule="evenodd" clip-rule="evenodd" d="M28.4654 22.482C28.743 21.2135 28.8283 19.8944 28.7132 18.5787L31.2899 17.3989C31.0016 19.4263 29.9411 21.2044 28.4654 22.482ZM28.651 18.0128L31.3529 16.7775C31.4184 15.7327 31.28 14.6307 30.8889 13.5055L30.7704 13.1857L27.7255 14.6224C28.1928 15.7186 28.4994 16.8611 28.651 18.0128ZM26.8564 23.5864L25.2416 20.1678L28.2492 18.7916C28.3453 20.1397 28.2343 21.5258 27.9211 22.9161C27.583 23.1655 27.2259 23.3901 26.8564 23.5864ZM25.0104 19.6774L28.1953 18.2208C28.0594 17.0476 27.762 15.9075 27.298 14.8237L23.5522 16.591L25.0104 19.6774ZM25.3509 24.2095C23.9855 23.4936 22.8173 22.6568 21.8379 21.7263L24.8157 20.3626L26.4438 23.7919C26.0892 23.9568 25.7238 24.096 25.3509 24.2095ZM21.3491 21.95C22.2911 22.8755 23.4105 23.6983 24.7138 24.376C22.751 24.8027 20.6183 24.4912 18.7143 23.1556L21.3491 21.95ZM21.4261 21.3179L24.5829 19.8737L23.1213 16.794L19.3987 18.5497C19.9256 19.5324 20.6009 20.462 21.4261 21.3179ZM17.5146 13.6638L15.1623 14.7409C15.4838 12.9106 16.4342 11.2958 17.7457 10.0886C17.5046 11.2536 17.4259 12.4591 17.5146 13.6638ZM20.9 12.1136L17.9802 13.4509C17.909 12.1973 18.0158 10.9122 18.2959 9.62216C18.6381 9.35536 18.9993 9.11426 19.3755 8.90215L20.9 12.1136ZM24.268 10.5725L21.3424 11.9114L19.813 8.67182C20.1676 8.49782 20.5346 8.34868 20.9099 8.22689C22.2041 8.90712 23.3218 9.69672 24.268 10.5725ZM21.5744 12.4019L24.6873 10.9777C25.5125 11.8103 26.1919 12.7134 26.7296 13.6704L22.9946 15.4095L21.5744 12.4019ZM18.0258 14.0242L21.132 12.6033L22.5604 15.6117L18.8369 17.3458C18.4111 16.2828 18.1426 15.1684 18.0258 14.0242ZM15.077 15.3731L17.5684 14.233C17.7002 15.3548 17.9786 16.4709 18.4086 17.5455L15.5228 18.8886C15.1019 17.6756 14.9726 16.4899 15.077 15.3731ZM27.4936 9.09603C25.5879 7.84162 23.4701 7.58643 21.5297 8.05207C22.7717 8.69833 23.8463 9.4755 24.7602 10.3471L27.4936 9.09603ZM23.2431 6.73054C26.5813 6.73054 28.9228 8.32134 30.5434 10.1607L29.381 10.768C28.9435 10.2618 28.4828 9.82846 28.0056 9.46059L25.1703 10.7573C25.9715 11.5924 26.6352 12.5055 27.1646 13.4683L31.4631 11.4665C32.2022 12.87 32.6148 14.528 32.6761 16.1594C32.6993 21.1795 28.5226 25.6636 23.1694 25.6636C19.8312 25.6636 17.4897 24.0728 15.8691 22.2334L17.0307 21.6261C17.4118 22.0652 17.8095 22.4497 18.2197 22.7836L20.9456 21.5366C20.1444 20.6774 19.4865 19.7395 18.967 18.7535L14.8351 20.7023C14.1946 19.4545 13.8069 18.089 13.7364 16.2339C13.7132 11.2146 17.8899 6.73054 23.2431 6.73054Z" fill="white"/>
<path fill-rule="evenodd" clip-rule="evenodd" d="M45.6449 17.1605C45.0734 17.6363 44.2418 17.8738 43.1954 17.8738H41.1495V21.394H39.1758V11.5708H43.338C44.3123 11.5708 45.0734 11.8334 45.6449 12.3319C46.2155 12.8556 46.5008 13.6402 46.5008 14.6866C46.5008 15.8522 46.2155 16.6612 45.6449 17.1605ZM44.1226 13.6167C43.8608 13.4027 43.5042 13.2835 43.0284 13.2835H41.1495V16.1854H43.0284C43.5042 16.1854 43.8608 16.0662 44.1226 15.8279C44.3845 15.5904 44.5271 15.2103 44.5271 14.7109C44.5271 14.1873 44.3845 13.8307 44.1226 13.6167Z" fill="white"/>
<path fill-rule="evenodd" clip-rule="evenodd" d="M54.3215 11.8332C54.6782 11.9994 54.9878 12.2134 55.2253 12.523C55.4393 12.7605 55.6055 13.0458 55.7246 13.3554C55.8438 13.64 55.9151 13.9974 55.9151 14.3784C55.9151 14.8534 55.7959 15.3048 55.5584 15.7571C55.3445 16.2086 54.9635 16.5183 54.4407 16.7087C54.8687 16.8984 55.1775 17.1602 55.368 17.4934C55.5584 17.8265 55.6533 18.3258 55.6533 19.0148V19.6819C55.6533 20.1334 55.6533 20.4422 55.7011 20.5857C55.7489 20.8467 55.8673 21.0363 56.0577 21.1563V21.3938H53.8692C53.7979 21.1798 53.7501 21.0128 53.7274 20.8702C53.6796 20.6092 53.6552 20.3239 53.6552 20.0377L53.6317 19.1113C53.6317 18.492 53.5126 18.064 53.2986 17.8735C53.0854 17.6595 52.6809 17.5412 52.086 17.5412H50.0166V21.3938H48.0664V11.5714H52.7758C53.4413 11.5949 53.9649 11.6662 54.3215 11.8332ZM50.0166 13.2833V15.9241H52.3C52.7515 15.9241 53.0854 15.8755 53.2986 15.7571C53.7031 15.5667 53.8935 15.21 53.8935 14.6629C53.8935 14.0687 53.7031 13.6643 53.3229 13.4503C53.1081 13.3554 52.7758 13.2833 52.347 13.2833H50.0166Z" fill="white"/>
<path fill-rule="evenodd" clip-rule="evenodd" d="M69.6805 18.1111C69.7284 18.5634 69.8467 18.8957 70.0372 19.1097C70.3703 19.5142 70.9175 19.7282 71.7021 19.7282C72.1779 19.7282 72.558 19.6568 72.8434 19.562C73.4148 19.3472 73.6993 18.9671 73.6993 18.4199C73.6993 18.0876 73.5575 17.8493 73.2722 17.6588C72.986 17.4918 72.558 17.35 71.9639 17.2073L70.9645 16.969C69.9659 16.755 69.2761 16.494 68.8959 16.2322C68.2531 15.7799 67.9208 15.0666 67.9208 14.0915C67.9208 13.2112 68.2296 12.4744 68.8481 11.9038C69.4901 11.3332 70.3938 11.0235 71.6064 11.0235C72.6059 11.0235 73.4853 11.3088 74.1751 11.856C74.8892 12.4031 75.2694 13.1877 75.3172 14.2342H73.3905C73.3435 13.6635 73.1052 13.2347 72.6294 12.9737C72.3206 12.8068 71.9396 12.7354 71.4646 12.7354C70.9645 12.7354 70.5365 12.8554 70.2277 13.0451C69.918 13.2599 69.7754 13.5687 69.7754 13.9489C69.7754 14.3055 69.918 14.5673 70.2277 14.7335C70.4173 14.8518 70.8453 14.9953 71.4881 15.1379L73.1287 15.5424C73.842 15.7321 74.3899 15.9704 74.7701 16.2557C75.3407 16.7315 75.626 17.3978 75.626 18.2773C75.626 19.1575 75.2937 19.9178 74.6039 20.5128C73.9376 21.1077 73.0095 21.3931 71.7734 21.3931C70.5365 21.3931 69.5614 21.1077 68.8481 20.5128C68.1348 19.943 67.7773 19.134 67.7773 18.1111H69.6805Z" fill="white"/>
<path fill-rule="evenodd" clip-rule="evenodd" d="M84.2994 13.3071H79.2334V15.3999H83.8715V17.1126H79.2334V19.6343H84.5369V21.394H77.2832V11.5708H84.2994V13.3071Z" fill="white"/>
<path fill-rule="evenodd" clip-rule="evenodd" d="M92.526 14.3774C92.359 13.7111 92.0024 13.2353 91.4082 12.9743C91.0751 12.8308 90.7184 12.7595 90.314 12.7595C89.5537 12.7595 88.9109 13.0448 88.4116 13.6633C87.9123 14.2582 87.674 15.1377 87.674 16.3511C87.674 17.5645 87.9358 18.4197 88.4829 18.9198C89.0057 19.4191 89.6242 19.6574 90.314 19.6574C90.9802 19.6574 91.5274 19.4661 91.9554 19.086C92.3833 18.6823 92.6443 18.1587 92.74 17.5167H90.528V15.8761H94.5232V21.131H93.1923L93.001 19.9184C92.5973 20.3707 92.2642 20.7038 91.9554 20.8935C91.4317 21.2267 90.7663 21.3928 90.0051 21.3928C88.7439 21.3928 87.6975 20.9413 86.8893 20.0367C86.0569 19.1338 85.6289 17.8977 85.6289 16.3268C85.6289 14.7332 86.0569 13.4736 86.9128 12.4985C87.7453 11.5469 88.8874 11.0711 90.2905 11.0711C91.5031 11.0711 92.4782 11.3807 93.2158 12.0227C93.9526 12.6404 94.3814 13.4258 94.4762 14.3774H92.526Z" fill="white"/>
<path fill-rule="evenodd" clip-rule="evenodd" d="M96.5586 11.3092H98.5801V17.3495C98.5801 18.0401 98.6515 18.5151 98.8184 18.8239C99.0559 19.3954 99.5796 19.6572 100.388 19.6572C101.22 19.6572 101.743 19.3954 101.981 18.8239C102.124 18.5151 102.219 18.0401 102.219 17.3495V11.3092H104.24V17.3495C104.24 18.3959 104.074 19.2049 103.765 19.7998C103.17 20.8698 102.053 21.3926 100.388 21.3926C98.7463 21.3926 97.605 20.8698 97.0109 19.7998C96.7013 19.2049 96.5586 18.3959 96.5586 17.3495V11.3092Z" fill="white"/>
<path fill-rule="evenodd" clip-rule="evenodd" d="M108.221 13.2833V15.9241H110.48C110.932 15.9241 111.265 15.8755 111.503 15.7571C111.906 15.5667 112.097 15.21 112.097 14.6629C112.097 14.0687 111.906 13.6643 111.526 13.4503C111.289 13.3554 110.979 13.2833 110.551 13.2833H108.221ZM112.501 11.8332C112.858 11.9994 113.167 12.2134 113.428 12.523C113.642 12.7597 113.809 13.0458 113.929 13.3554C114.047 13.64 114.095 13.9974 114.095 14.3784C114.095 14.8534 113.976 15.3048 113.762 15.7571C113.524 16.2086 113.144 16.5183 112.62 16.7087C113.072 16.8984 113.381 17.1602 113.548 17.4934C113.738 17.8257 113.834 18.3258 113.834 19.0148V19.6819C113.834 20.1334 113.857 20.4422 113.881 20.5857C113.929 20.8467 114.071 21.0363 114.261 21.1563V21.3938H112.05C111.978 21.1798 111.955 21.0128 111.931 20.8702C111.859 20.6092 111.835 20.3239 111.835 20.0377L111.811 19.1104C111.811 18.492 111.693 18.064 111.479 17.8735C111.265 17.6595 110.86 17.5412 110.289 17.5412H108.221V21.3938H106.27V11.5714H110.955C111.622 11.5949 112.144 11.6662 112.501 11.8332Z" fill="white"/>
<path fill-rule="evenodd" clip-rule="evenodd" d="M64.0902 18.7531C64.5417 18.1589 64.78 17.3022 64.78 16.1844C64.78 15.0901 64.5417 14.2342 64.0902 13.6392C63.6144 13.0451 62.9959 12.7354 62.2113 12.7354C61.4024 12.7354 60.7839 13.0216 60.3081 13.6392C59.8331 14.2342 59.5948 15.0901 59.5948 16.1844C59.5948 17.3022 59.8331 18.1589 60.3081 18.7531C60.7839 19.3472 61.4024 19.6568 62.2113 19.6568C62.9959 19.6568 63.6144 19.3472 64.0902 18.7531ZM65.3506 20.2518C64.613 21.0129 63.5666 21.3931 62.2113 21.3931C60.8309 21.3931 59.7853 21.0129 59.072 20.2518C58.0961 19.3002 57.6211 17.9449 57.6211 16.1844C57.6211 14.4011 58.0961 13.0451 59.072 12.1413C59.7853 11.3802 60.8309 11 62.2113 11C63.5666 11 64.613 11.3802 65.3506 12.1413C66.3022 13.0451 66.7772 14.4011 66.7772 16.1844C66.7772 17.9449 66.3022 19.3002 65.3506 20.2518Z" fill="white"/>
</svg>

<svg width="125" height="32" fill="none" xmlns="http://www.w3.org/2000/svg"><path d="M-.002 32h124.444V0H-.002v32Z" fill="#000"/><path fill-rule="evenodd" clip-rule="evenodd" d="M28.465 22.482c.278-1.268.363-2.588.248-3.903l2.577-1.18c-.288 2.027-1.349 3.805-2.825 5.083Zm.186-4.47 2.702-1.235a8.333 8.333 0 0 0-.464-3.272l-.119-.32-3.044 1.437c.467 1.097.773 2.24.925 3.39Zm-1.795 5.574-1.614-3.418 3.007-1.376a14.175 14.175 0 0 1-.328 4.124c-.338.25-.695.474-1.065.67Zm-1.846-3.909 3.185-1.456a12.165 12.165 0 0 0-.897-3.397l-3.746 1.767 1.458 3.086Zm.34 4.532c-1.365-.715-2.533-1.552-3.512-2.483l2.978-1.363 1.628 3.429c-.355.165-.72.304-1.093.417Zm-4-2.259a13.978 13.978 0 0 0 3.364 2.426c-1.963.427-4.096.115-6-1.22l2.635-1.206Zm.076-.632 3.157-1.444-1.462-3.08L19.4 18.55a12.492 12.492 0 0 0 2.027 2.768Zm-3.911-7.654-2.353 1.077c.322-1.83 1.272-3.445 2.584-4.652a12.962 12.962 0 0 0-.231 3.575Zm3.385-1.55-2.92 1.337a14.236 14.236 0 0 1 .316-3.829 8.733 8.733 0 0 1 1.08-.72l1.524 3.212Zm3.368-1.542-2.926 1.34-1.529-3.24a8.327 8.327 0 0 1 1.097-.445c1.294.68 2.412 1.47 3.358 2.345Zm-2.694 1.83 3.113-1.424a12.567 12.567 0 0 1 2.043 2.692l-3.735 1.74-1.42-3.008Zm-3.548 1.622 3.106-1.42 1.428 3.008-3.723 1.734a12.26 12.26 0 0 1-.811-3.322Zm-2.949 1.35 2.491-1.141c.132 1.122.41 2.238.84 3.313l-2.885 1.343a8.31 8.31 0 0 1-.446-3.516Zm12.417-6.278c-1.906-1.254-4.024-1.51-5.964-1.044a14.067 14.067 0 0 1 3.23 2.295l2.734-1.251Zm-4.25-2.365c3.337 0 5.679 1.59 7.3 3.43l-1.163.607a9.424 9.424 0 0 0-1.375-1.307l-2.836 1.296a12.869 12.869 0 0 1 1.995 2.711l4.298-2.002c.74 1.404 1.152 3.062 1.213 4.693.023 5.02-4.153 9.505-9.507 9.505-3.338 0-5.68-1.591-7.3-3.43l1.162-.608c.38.44.779.824 1.189 1.158l2.726-1.247a12.88 12.88 0 0 1-1.979-2.784l-4.132 1.95c-.64-1.248-1.028-2.614-1.099-4.47-.023-5.018 4.154-9.502 9.507-9.502ZM45.645 17.16c-.572.476-1.403.714-2.45.714H41.15v3.52h-1.974v-9.823h4.162c.974 0 1.735.262 2.307.76.57.525.856 1.31.856 2.356 0 1.165-.285 1.974-.856 2.473Zm-1.522-3.543c-.262-.214-.619-.334-1.095-.334H41.15v2.902h1.878c.476 0 .833-.119 1.095-.357s.404-.618.404-1.117c0-.524-.142-.88-.404-1.094ZM54.322 11.833c.356.166.666.38.903.69.214.238.38.523.5.832.119.285.19.642.19 1.023 0 .475-.12.927-.357 1.38-.214.45-.594.76-1.117.95.428.19.736.452.927.785.19.334.285.833.285 1.522v.667c0 .451 0 .76.048.904.048.26.166.45.357.57v.238h-2.189a3.434 3.434 0 0 1-.142-.524 4.682 4.682 0 0 1-.072-.832l-.023-.927c0-.619-.12-1.047-.333-1.238-.214-.213-.618-.332-1.213-.332h-2.07v3.853h-1.95V11.57h4.71c.665.024 1.189.095 1.545.262Zm-4.305 1.45v2.641H52.3c.452 0 .785-.048.999-.167.404-.19.595-.547.595-1.094 0-.594-.19-.999-.571-1.213-.215-.095-.547-.167-.976-.167h-2.33ZM69.68 18.111c.048.452.167.785.357.999.333.404.88.618 1.665.618.476 0 .856-.071 1.141-.166.572-.215.856-.595.856-1.142 0-.332-.141-.57-.427-.761-.286-.167-.714-.309-1.308-.452l-1-.238c-.998-.214-1.688-.475-2.068-.737-.643-.452-.975-1.165-.975-2.14 0-.88.309-1.618.927-2.188.642-.57 1.546-.88 2.758-.88 1 0 1.88.285 2.57.832.713.547 1.093 1.332 1.141 2.378h-1.926c-.047-.57-.286-1-.762-1.26-.308-.167-.69-.239-1.164-.239-.5 0-.928.12-1.237.31-.31.215-.453.524-.453.904 0 .357.143.618.453.784.19.119.617.262 1.26.405l1.64.404c.714.19 1.262.428 1.642.714.57.476.856 1.142.856 2.021 0 .88-.332 1.64-1.022 2.236-.666.595-1.594.88-2.83.88-1.237 0-2.213-.285-2.926-.88-.713-.57-1.07-1.379-1.07-2.402h1.902ZM84.3 13.307h-5.067V15.4h4.638v1.713h-4.638v2.521h5.304v1.76h-7.254v-9.823H84.3v1.736ZM92.526 14.377c-.167-.666-.524-1.142-1.118-1.403a2.709 2.709 0 0 0-1.094-.215c-.76 0-1.403.286-1.902.904-.5.595-.738 1.475-.738 2.688s.262 2.069.809 2.569a2.57 2.57 0 0 0 1.831.737c.666 0 1.213-.19 1.641-.571.428-.404.69-.927.785-1.57h-2.212v-1.64h3.995v5.255h-1.33L93 19.918c-.404.453-.737.786-1.046.976-.523.333-1.189.499-1.95.499-1.261 0-2.307-.452-3.116-1.356-.832-.903-1.26-2.14-1.26-3.71 0-1.594.428-2.853 1.284-3.829.832-.951 1.974-1.427 3.377-1.427 1.213 0 2.188.31 2.926.952.737.617 1.165 1.403 1.26 2.354h-1.95ZM96.559 11.31h2.021v6.04c0 .69.072 1.165.238 1.474.238.571.762.833 1.57.833.832 0 1.355-.262 1.593-.833.143-.309.238-.784.238-1.475v-6.04h2.021v6.04c0 1.047-.166 1.856-.475 2.45-.595 1.07-1.712 1.594-3.377 1.594-1.642 0-2.783-.523-3.377-1.593-.31-.595-.452-1.404-.452-2.45v-6.04ZM108.221 13.283v2.641h2.259c.452 0 .785-.048 1.023-.167.403-.19.594-.547.594-1.094 0-.594-.191-.999-.571-1.213a2.573 2.573 0 0 0-.975-.167h-2.33Zm4.28-1.45c.357.166.666.38.927.69.214.237.381.523.501.832.118.285.166.642.166 1.023 0 .475-.119.927-.333 1.38-.238.45-.618.76-1.142.95.452.19.761.452.928.785.19.333.286.833.286 1.522v.667c0 .451.023.76.047.904.048.26.19.45.38.57v.238h-2.211c-.072-.214-.095-.381-.119-.524a3.16 3.16 0 0 1-.096-.832l-.024-.928c0-.618-.118-1.046-.332-1.236-.214-.214-.619-.333-1.19-.333h-2.068v3.853h-1.951V11.57h4.685c.667.024 1.189.095 1.546.262ZM64.09 18.753c.452-.594.69-1.45.69-2.569 0-1.094-.238-1.95-.69-2.545-.476-.594-1.094-.904-1.879-.904-.809 0-1.427.287-1.903.904-.475.595-.713 1.451-.713 2.545 0 1.118.238 1.975.713 2.57.476.593 1.094.903 1.903.903.785 0 1.403-.31 1.88-.904Zm1.26 1.499c-.737.76-1.783 1.141-3.139 1.141-1.38 0-2.426-.38-3.139-1.141-.976-.952-1.45-2.307-1.45-4.068 0-1.783.474-3.139 1.45-4.043.713-.76 1.759-1.141 3.14-1.141 1.355 0 2.401.38 3.139 1.141.951.904 1.426 2.26 1.426 4.043 0 1.76-.475 3.116-1.426 4.068Z" fill="#fff"/></svg>
